X:5684
T:Gan Ainm
R:Reel
C:
S:
H:
N:Not the clearest of playing: second half is 'reconstructed' somewhat
D:Milltown Session 
Z:Adrian Scahill
M:4/4
L:1/8
K:A
A3B ABce|f3e fefg|a2fe fdaf|(3efe cA BAFA|\
A3B ABce|f3e fefg|a2fe fdaf|ecBc A4:||\
c3e efae|fcec BecB|AFEC EFAE|FAEC B,2 CB,|\
A,2CE FECE|cEcB ABce|agae fdaf|ecBc A4:||
